Obsidian/status/16s/gpm-keyboard-020.svg

<svg height="16" width="16" xmlns="http://www.w3.org/2000/svg"><path d="m2.5.99965c-.277 0-.5.22305-.5.49995v.5l-2-.0019v-.0003 12.5026c0 .277.223.5.5.5h6c.277 0 .5-.223.5-.5v-12.5016l-.5.0019h-1.5v-.4999c0-.277-.223-.5-.5-.5z" fill="#5294e2" opacity=".3"/><path d="m0 12v2.5c0 .277.223.5.5.5h6c.277 0 .5-.223.5-.5v-2.5z" fill="#5294e2"/><path d="m10 2c-.554 0-1 .446-1 1v11c0 .554.446 1 1 1h5c.554 0 1-.446 1-1v-11c0-.554-.446-1-1-1zm0 2h1v1h-1zm2 0h1v1h-1zm2 1h1v7h-1zm-4 1h1v1h-1zm2 0h1v1h-1zm-2 2h1v1h-1zm2 0h1v1h-1zm-2 2h1v1h-1zm2 0h1v1h-1zm-2 2h1v1h-1zm2 0h1v1h-1z" fill="#d3dae3"/></svg>

<svg xmlns="http://www.w3.org/2000/svg" width="16" height="16" version="1.1">
 <defs>
  <style id="current-color-scheme" type="text/css">
   .ColorScheme-Text { color:#d3dae3; } .ColorScheme-Highlight { color:#5294e2; }
  </style>
 </defs>
 <path style="opacity:0.3;fill:currentColor" class="ColorScheme-Highlight" d="M 2.5,0.99965 C 2.223,0.99965 2,1.2227 2,1.4996 V 1.9996 L 0,1.9977 V 1.9974 14.5 C 0,14.777 0.223,15 0.5,15 H 6.5 C 6.777,15 7,14.777 7,14.5 V 1.9984 L 6.5,2.0003 H 5 V 1.5004 C 5,1.2234 4.777,1.0004 4.5,1.0004 Z"/>
 <path style="fill:currentColor" class="ColorScheme-Highlight" d="M 0,12 V 14.5 C 0,14.777 0.223,15 0.5,15 H 6.5 C 6.777,15 7,14.777 7,14.5 V 12 Z"/>
 <path style="fill:currentColor" class="ColorScheme-Text" d="M 10,2 C 9.446,2 9,2.446 9,3 V 14 C 9,14.554 9.446,15 10,15 H 15 C 15.554,15 16,14.554 16,14 V 3 C 16,2.446 15.554,2 15,2 Z M 10,4 H 11 V 5 H 10 Z M 12,4 H 13 V 5 H 12 Z M 14,5 H 15 V 12 H 14 Z M 10,6 H 11 V 7 H 10 Z M 12,6 H 13 V 7 H 12 Z M 10,8 H 11 V 9 H 10 Z M 12,8 H 13 V 9 H 12 Z M 10,10 H 11 V 11 H 10 Z M 12,10 H 13 V 11 H 12 Z M 10,12 H 11 V 13 H 10 Z M 12,12 H 13 V 13 H 12 Z"/>
</svg>
